X: 4657
T: Boy In The Gap, The
R: reel
M: 4/4
K: Dmixolydian
D2FA dedc|A2GE cEGE|D2FA dedc|1 A2GE ~E2GE:|2 A2GE FDD2||
|:~f3g fedf|(3efg fd ed^cA|A2(3B^cd edcd|eaag eaag|
~f3g fedf|egfd ed^cA|AB^cd e^cd^c|1 AFGE FDDe:|2 AFGE FAFE||

